images/267676.svg

<?xml version="1.0" encoding="UTF-8"?>
<svg xmlns="http://www.w3.org/2000/svg" xmlns:xlink="http://www.w3.org/1999/xlink" width="300pt" height="300pt" viewBox="0 0 300 300" version="1.1">
<defs>
<g>
<symbol overflow="visible" id="glyph0-0">
<path style="stroke:none;" d="M 0.546875 1.9375 L 0.546875 -7.75 L 6.046875 -7.75 L 6.046875 1.9375 Z M 1.171875 1.328125 L 5.4375 1.328125 L 5.4375 -7.140625 L 1.171875 -7.140625 Z M 1.171875 1.328125 "/>
</symbol>
<symbol overflow="visible" id="glyph0-1">
<path style="stroke:none;" d="M 1.078125 -8.015625 L 2.171875 -8.015625 L 2.171875 -4.734375 L 6.109375 -4.734375 L 6.109375 -8.015625 L 7.1875 -8.015625 L 7.1875 0 L 6.109375 0 L 6.109375 -3.8125 L 2.171875 -3.8125 L 2.171875 0 L 1.078125 0 Z M 1.078125 -8.015625 "/>
</symbol>
<symbol overflow="visible" id="glyph0-2">
<path style="stroke:none;" d="M 4.328125 -7.28125 C 3.546875 -7.28125 2.921875 -6.984375 2.453125 -6.390625 C 1.992188 -5.804688 1.765625 -5.007812 1.765625 -4 C 1.765625 -2.988281 1.992188 -2.1875 2.453125 -1.59375 C 2.921875 -1.007812 3.546875 -0.71875 4.328125 -0.71875 C 5.117188 -0.71875 5.742188 -1.007812 6.203125 -1.59375 C 6.660156 -2.1875 6.890625 -2.988281 6.890625 -4 C 6.890625 -5.007812 6.660156 -5.804688 6.203125 -6.390625 C 5.742188 -6.984375 5.117188 -7.28125 4.328125 -7.28125 Z M 4.328125 -8.171875 C 5.453125 -8.171875 6.351562 -7.789062 7.03125 -7.03125 C 7.707031 -6.28125 8.046875 -5.269531 8.046875 -4 C 8.046875 -2.738281 7.707031 -1.726562 7.03125 -0.96875 C 6.351562 -0.21875 5.453125 0.15625 4.328125 0.15625 C 3.203125 0.15625 2.300781 -0.21875 1.625 -0.96875 C 0.957031 -1.71875 0.625 -2.726562 0.625 -4 C 0.625 -5.269531 0.957031 -6.28125 1.625 -7.03125 C 2.300781 -7.789062 3.203125 -8.171875 4.328125 -8.171875 Z M 4.328125 -8.171875 "/>
</symbol>
<symbol overflow="visible" id="glyph0-3">
<path style="stroke:none;" d="M 1.078125 -8.015625 L 2.546875 -8.015625 L 6.09375 -1.3125 L 6.09375 -8.015625 L 7.15625 -8.015625 L 7.15625 0 L 5.6875 0 L 2.125 -6.703125 L 2.125 0 L 1.078125 0 Z M 1.078125 -8.015625 "/>
</symbol>
</g>
</defs>
<g id="surface13469">
<rect x="0" y="0" width="300" height="300" style="fill:rgb(100%,100%,100%);fill-opacity:1;stroke:none;"/>
<path style="fill:none;stroke-width:1.2;stroke-linecap:butt;stroke-linejoin:miter;stroke:rgb(100%,0%,0%);stroke-opacity:1;stroke-miterlimit:10;" d="M 176.636719 139.894531 L 177.9375 126.425781 "/>
<path style="fill:none;stroke-width:1.2;stroke-linecap:butt;stroke-linejoin:miter;stroke:rgb(0%,0%,0%);stroke-opacity:1;stroke-miterlimit:10;" d="M 177.9375 126.425781 L 179.234375 112.957031 "/>
<path style=" stroke:none;fill-rule:nonzero;fill:rgb(100%,100%,100%);fill-opacity:1;" d="M 168.636719 133.394531 L 185.636719 133.394531 L 185.636719 146.394531 L 168.636719 146.394531 Z M 168.636719 133.394531 "/>
<g style="fill:rgb(100%,0%,0%);fill-opacity:1;">
  <use xlink:href="#glyph0-1" x="168.636719" y="143.295898"/>
  <use xlink:href="#glyph0-2" x="176.661133" y="143.295898"/>
</g>
<path style=" stroke:none;fill-rule:nonzero;fill:rgb(0%,0%,0%);fill-opacity:1;" d="M 157.207031 97.242188 L 176.460938 116.84375 L 182.007812 109.070312 Z M 157.207031 97.242188 "/>
<path style="fill:none;stroke-width:1.2;stroke-linecap:butt;stroke-linejoin:miter;stroke:rgb(0%,0%,0%);stroke-opacity:1;stroke-miterlimit:10;" d="M 179.234375 112.957031 L 203.859375 101.738281 "/>
<path style="fill:none;stroke-width:1.2;stroke-linecap:butt;stroke-linejoin:miter;stroke:rgb(0%,0%,0%);stroke-opacity:1;stroke-miterlimit:10;" d="M 157.207031 97.242188 L 144.894531 102.851562 "/>
<path style="fill:none;stroke-width:1.2;stroke-linecap:butt;stroke-linejoin:miter;stroke:rgb(0%,0%,100%);stroke-opacity:1;stroke-miterlimit:10;" d="M 144.894531 102.851562 L 132.582031 108.460938 "/>
<path style="fill:none;stroke-width:1.2;stroke-linecap:butt;stroke-linejoin:miter;stroke:rgb(0%,0%,0%);stroke-opacity:1;stroke-miterlimit:10;" d="M 157.207031 97.242188 L 159.804688 70.304688 "/>
<path style="fill:none;stroke-width:1.2;stroke-linecap:butt;stroke-linejoin:miter;stroke:rgb(0%,0%,100%);stroke-opacity:1;stroke-miterlimit:10;" d="M 132.582031 108.460938 L 131.285156 121.925781 "/>
<path style="fill:none;stroke-width:1.2;stroke-linecap:butt;stroke-linejoin:miter;stroke:rgb(0%,0%,0%);stroke-opacity:1;stroke-miterlimit:10;" d="M 131.285156 121.925781 L 129.984375 135.394531 "/>
<path style=" stroke:none;fill-rule:nonzero;fill:rgb(100%,100%,100%);fill-opacity:1;" d="M 124.582031 101.960938 L 141.582031 101.960938 L 141.582031 114.960938 L 124.582031 114.960938 Z M 124.582031 101.960938 "/>
<g style="fill:rgb(0%,0%,100%);fill-opacity:1;">
  <use xlink:href="#glyph0-3" x="124.582031" y="111.862305"/>
  <use xlink:href="#glyph0-1" x="132.56543" y="111.862305"/>
</g>
<path style="fill:none;stroke-width:1.2;stroke-linecap:butt;stroke-linejoin:miter;stroke:rgb(0%,0%,0%);stroke-opacity:1;stroke-miterlimit:10;" d="M 129.984375 135.394531 L 141 143.253906 "/>
<path style="fill:none;stroke-width:1.2;stroke-linecap:butt;stroke-linejoin:miter;stroke:rgb(0%,0%,100%);stroke-opacity:1;stroke-miterlimit:10;" d="M 141 143.253906 L 152.011719 151.113281 "/>
<path style="fill:none;stroke-width:1.2;stroke-linecap:butt;stroke-linejoin:miter;stroke:rgb(0%,0%,0%);stroke-opacity:1;stroke-miterlimit:10;" d="M 128.488281 142.148438 L 137.300781 148.4375 "/>
<path style="fill:none;stroke-width:1.2;stroke-linecap:butt;stroke-linejoin:miter;stroke:rgb(0%,0%,100%);stroke-opacity:1;stroke-miterlimit:10;" d="M 137.300781 148.4375 L 146.113281 154.722656 "/>
<path style="fill:none;stroke-width:1.2;stroke-linecap:butt;stroke-linejoin:miter;stroke:rgb(0%,0%,100%);stroke-opacity:1;stroke-miterlimit:10;" d="M 105.359375 146.613281 L 117.671875 141.003906 "/>
<path style="fill:none;stroke-width:1.2;stroke-linecap:butt;stroke-linejoin:miter;stroke:rgb(0%,0%,0%);stroke-opacity:1;stroke-miterlimit:10;" d="M 117.671875 141.003906 L 129.984375 135.394531 "/>
<path style="fill:none;stroke-width:1.2;stroke-linecap:butt;stroke-linejoin:miter;stroke:rgb(0%,0%,100%);stroke-opacity:1;stroke-miterlimit:10;" d="M 152.011719 151.113281 L 150.714844 164.578125 "/>
<path style="fill:none;stroke-width:1.2;stroke-linecap:butt;stroke-linejoin:miter;stroke:rgb(0%,0%,0%);stroke-opacity:1;stroke-miterlimit:10;" d="M 150.714844 164.578125 L 149.417969 178.046875 "/>
<path style=" stroke:none;fill-rule:nonzero;fill:rgb(100%,100%,100%);fill-opacity:1;" d="M 148.011719 144.613281 L 156.011719 144.613281 L 156.011719 157.613281 L 148.011719 157.613281 Z M 148.011719 144.613281 "/>
<g style="fill:rgb(0%,0%,100%);fill-opacity:1;">
  <use xlink:href="#glyph0-3" x="148.011719" y="154.514648"/>
</g>
<path style="fill:none;stroke-width:1.2;stroke-linecap:butt;stroke-linejoin:miter;stroke:rgb(0%,0%,0%);stroke-opacity:1;stroke-miterlimit:10;" d="M 149.417969 178.046875 L 160.429688 185.90625 "/>
<path style="fill:none;stroke-width:1.2;stroke-linecap:butt;stroke-linejoin:miter;stroke:rgb(0%,0%,100%);stroke-opacity:1;stroke-miterlimit:10;" d="M 160.429688 185.90625 L 171.445312 193.761719 "/>
<path style="fill:none;stroke-width:1.2;stroke-linecap:butt;stroke-linejoin:miter;stroke:rgb(0%,0%,0%);stroke-opacity:1;stroke-miterlimit:10;" d="M 149.417969 178.046875 L 124.792969 189.265625 "/>
<path style="fill:none;stroke-width:1.2;stroke-linecap:butt;stroke-linejoin:miter;stroke:rgb(0%,0%,0%);stroke-opacity:1;stroke-miterlimit:10;" d="M 144.3125 173.375 L 124.613281 182.347656 "/>
<path style="fill:none;stroke-width:1.2;stroke-linecap:butt;stroke-linejoin:miter;stroke:rgb(0%,0%,100%);stroke-opacity:1;stroke-miterlimit:10;" d="M 171.445312 193.761719 L 183.757812 188.152344 "/>
<path style="fill:none;stroke-width:1.2;stroke-linecap:butt;stroke-linejoin:miter;stroke:rgb(0%,0%,0%);stroke-opacity:1;stroke-miterlimit:10;" d="M 183.757812 188.152344 L 196.070312 182.542969 "/>
<path style=" stroke:none;fill-rule:nonzero;fill:rgb(100%,100%,100%);fill-opacity:1;" d="M 163.445312 187.261719 L 180.445312 187.261719 L 180.445312 200.261719 L 163.445312 200.261719 Z M 163.445312 187.261719 "/>
<g style="fill:rgb(0%,0%,100%);fill-opacity:1;">
  <use xlink:href="#glyph0-3" x="163.445312" y="197.163086"/>
  <use xlink:href="#glyph0-1" x="171.428711" y="197.163086"/>
</g>
<path style="fill:none;stroke-width:1.2;stroke-linecap:butt;stroke-linejoin:miter;stroke:rgb(0%,0%,0%);stroke-opacity:1;stroke-miterlimit:10;" d="M 196.070312 182.542969 L 218.097656 198.261719 "/>
<path style="fill:none;stroke-width:1.2;stroke-linecap:butt;stroke-linejoin:miter;stroke:rgb(0%,0%,0%);stroke-opacity:1;stroke-miterlimit:10;" d="M 218.097656 198.261719 L 215.5 225.195312 "/>
<path style="fill:none;stroke-width:1.2;stroke-linecap:butt;stroke-linejoin:miter;stroke:rgb(0%,0%,0%);stroke-opacity:1;stroke-miterlimit:10;" d="M 224.175781 201.566406 L 222.097656 223.113281 "/>
<path style="fill:none;stroke-width:1.2;stroke-linecap:butt;stroke-linejoin:miter;stroke:rgb(0%,0%,0%);stroke-opacity:1;stroke-miterlimit:10;" d="M 242.722656 187.042969 L 218.097656 198.261719 "/>
<path style="fill:none;stroke-width:1.2;stroke-linecap:butt;stroke-linejoin:miter;stroke:rgb(0%,0%,0%);stroke-opacity:1;stroke-miterlimit:10;" d="M 215.5 225.195312 L 237.527344 240.914062 "/>
<path style="fill:none;stroke-width:1.2;stroke-linecap:butt;stroke-linejoin:miter;stroke:rgb(0%,0%,0%);stroke-opacity:1;stroke-miterlimit:10;" d="M 237.527344 240.914062 L 262.152344 229.695312 "/>
<path style="fill:none;stroke-width:1.2;stroke-linecap:butt;stroke-linejoin:miter;stroke:rgb(0%,0%,0%);stroke-opacity:1;stroke-miterlimit:10;" d="M 237.351562 233.996094 L 257.050781 225.019531 "/>
<path style="fill:none;stroke-width:1.2;stroke-linecap:butt;stroke-linejoin:miter;stroke:rgb(0%,0%,0%);stroke-opacity:1;stroke-miterlimit:10;" d="M 262.152344 229.695312 L 263.453125 216.226562 "/>
<path style="fill:none;stroke-width:1.2;stroke-linecap:butt;stroke-linejoin:miter;stroke:rgb(0%,0%,100%);stroke-opacity:1;stroke-miterlimit:10;" d="M 263.453125 216.226562 L 264.75 202.757812 "/>
<path style="fill:none;stroke-width:1.2;stroke-linecap:butt;stroke-linejoin:miter;stroke:rgb(0%,0%,100%);stroke-opacity:1;stroke-miterlimit:10;" d="M 264.75 202.757812 L 253.734375 194.902344 "/>
<path style="fill:none;stroke-width:1.2;stroke-linecap:butt;stroke-linejoin:miter;stroke:rgb(0%,0%,0%);stroke-opacity:1;stroke-miterlimit:10;" d="M 253.734375 194.902344 L 242.722656 187.042969 "/>
<path style="fill:none;stroke-width:1.2;stroke-linecap:butt;stroke-linejoin:miter;stroke:rgb(0%,0%,100%);stroke-opacity:1;stroke-miterlimit:10;" d="M 258.847656 206.371094 L 250.039062 200.082031 "/>
<path style="fill:none;stroke-width:1.2;stroke-linecap:butt;stroke-linejoin:miter;stroke:rgb(0%,0%,0%);stroke-opacity:1;stroke-miterlimit:10;" d="M 250.039062 200.082031 L 241.226562 193.796875 "/>
<path style=" stroke:none;fill-rule:nonzero;fill:rgb(100%,100%,100%);fill-opacity:1;" d="M 260.75 196.257812 L 268.75 196.257812 L 268.75 209.257812 L 260.75 209.257812 Z M 260.75 196.257812 "/>
<g style="fill:rgb(0%,0%,100%);fill-opacity:1;">
  <use xlink:href="#glyph0-3" x="260.75" y="206.15918"/>
</g>
<path style="fill:none;stroke-width:1.2;stroke-linecap:butt;stroke-linejoin:miter;stroke:rgb(0%,0%,0%);stroke-opacity:1;stroke-miterlimit:10;" d="M 124.792969 189.265625 L 120.722656 202.167969 "/>
<path style="fill:none;stroke-width:1.2;stroke-linecap:butt;stroke-linejoin:miter;stroke:rgb(0%,0%,100%);stroke-opacity:1;stroke-miterlimit:10;" d="M 120.722656 202.167969 L 116.652344 215.070312 "/>
<path style="fill:none;stroke-width:1.2;stroke-linecap:butt;stroke-linejoin:miter;stroke:rgb(0%,0%,0%);stroke-opacity:1;stroke-miterlimit:10;" d="M 102.761719 173.546875 L 124.792969 189.265625 "/>
<path style="fill:none;stroke-width:1.2;stroke-linecap:butt;stroke-linejoin:miter;stroke:rgb(0%,0%,100%);stroke-opacity:1;stroke-miterlimit:10;" d="M 116.652344 215.070312 L 103.121094 215.1875 "/>
<path style="fill:none;stroke-width:1.2;stroke-linecap:butt;stroke-linejoin:miter;stroke:rgb(0%,0%,0%);stroke-opacity:1;stroke-miterlimit:10;" d="M 103.121094 215.1875 L 89.59375 215.304688 "/>
<path style="fill:none;stroke-width:1.2;stroke-linecap:butt;stroke-linejoin:miter;stroke:rgb(0%,0%,100%);stroke-opacity:1;stroke-miterlimit:10;" d="M 113.890625 208.726562 L 103.066406 208.820312 "/>
<path style="fill:none;stroke-width:1.2;stroke-linecap:butt;stroke-linejoin:miter;stroke:rgb(0%,0%,0%);stroke-opacity:1;stroke-miterlimit:10;" d="M 103.066406 208.820312 L 92.242188 208.914062 "/>
<path style=" stroke:none;fill-rule:nonzero;fill:rgb(100%,100%,100%);fill-opacity:1;" d="M 112.652344 208.570312 L 120.652344 208.570312 L 120.652344 221.570312 L 112.652344 221.570312 Z M 112.652344 208.570312 "/>
<g style="fill:rgb(0%,0%,100%);fill-opacity:1;">
  <use xlink:href="#glyph0-3" x="112.652344" y="218.47168"/>
</g>
<path style="fill:none;stroke-width:1.2;stroke-linecap:butt;stroke-linejoin:miter;stroke:rgb(0%,0%,0%);stroke-opacity:1;stroke-miterlimit:10;" d="M 89.59375 215.304688 L 85.300781 202.472656 "/>
<path style="fill:none;stroke-width:1.2;stroke-linecap:butt;stroke-linejoin:miter;stroke:rgb(0%,0%,100%);stroke-opacity:1;stroke-miterlimit:10;" d="M 85.300781 202.472656 L 81.007812 189.640625 "/>
<path style="fill:none;stroke-width:1.2;stroke-linecap:butt;stroke-linejoin:miter;stroke:rgb(0%,0%,100%);stroke-opacity:1;stroke-miterlimit:10;" d="M 81.007812 189.640625 L 91.886719 181.59375 "/>
<path style="fill:none;stroke-width:1.2;stroke-linecap:butt;stroke-linejoin:miter;stroke:rgb(0%,0%,0%);stroke-opacity:1;stroke-miterlimit:10;" d="M 91.886719 181.59375 L 102.761719 173.546875 "/>
<path style="fill:none;stroke-width:1.2;stroke-linecap:butt;stroke-linejoin:miter;stroke:rgb(0%,0%,100%);stroke-opacity:1;stroke-miterlimit:10;" d="M 81.007812 189.640625 L 68.105469 185.570312 "/>
<path style="fill:none;stroke-width:1.2;stroke-linecap:butt;stroke-linejoin:miter;stroke:rgb(0%,0%,0%);stroke-opacity:1;stroke-miterlimit:10;" d="M 68.105469 185.570312 L 55.203125 181.5 "/>
<path style=" stroke:none;fill-rule:nonzero;fill:rgb(100%,100%,100%);fill-opacity:1;" d="M 77.007812 183.140625 L 85.007812 183.140625 L 85.007812 196.140625 L 77.007812 196.140625 Z M 77.007812 183.140625 "/>
<g style="fill:rgb(0%,0%,100%);fill-opacity:1;">
  <use xlink:href="#glyph0-3" x="77.007812" y="193.041992"/>
</g>
<path style="fill:none;stroke-width:1.2;stroke-linecap:butt;stroke-linejoin:miter;stroke:rgb(0%,0%,0%);stroke-opacity:1;stroke-miterlimit:10;" d="M 102.761719 173.546875 L 104.0625 160.082031 "/>
<path style="fill:none;stroke-width:1.2;stroke-linecap:butt;stroke-linejoin:miter;stroke:rgb(0%,0%,100%);stroke-opacity:1;stroke-miterlimit:10;" d="M 104.0625 160.082031 L 105.359375 146.613281 "/>
<path style="fill:none;stroke-width:1.2;stroke-linecap:butt;stroke-linejoin:miter;stroke:rgb(0%,0%,0%);stroke-opacity:1;stroke-miterlimit:10;" d="M 109.359375 171.464844 L 110.398438 160.691406 "/>
<path style="fill:none;stroke-width:1.2;stroke-linecap:butt;stroke-linejoin:miter;stroke:rgb(0%,0%,100%);stroke-opacity:1;stroke-miterlimit:10;" d="M 110.398438 160.691406 L 111.4375 149.917969 "/>
<path style=" stroke:none;fill-rule:nonzero;fill:rgb(100%,100%,100%);fill-opacity:1;" d="M 101.359375 140.113281 L 109.359375 140.113281 L 109.359375 153.113281 L 101.359375 153.113281 Z M 101.359375 140.113281 "/>
<g style="fill:rgb(0%,0%,100%);fill-opacity:1;">
  <use xlink:href="#glyph0-3" x="101.359375" y="150.014648"/>
</g>
<path style="fill:none;stroke-width:1.2;stroke-linecap:butt;stroke-linejoin:miter;stroke:rgb(0%,0%,0%);stroke-opacity:1;stroke-miterlimit:10;" d="M 55.203125 181.5 L 35.25 199.78125 "/>
<path style="fill:none;stroke-width:1.2;stroke-linecap:butt;stroke-linejoin:miter;stroke:rgb(0%,0%,0%);stroke-opacity:1;stroke-miterlimit:10;" d="M 55.203125 181.5 L 49.347656 155.082031 "/>
<path style="fill:none;stroke-width:1.2;stroke-linecap:butt;stroke-linejoin:miter;stroke:rgb(0%,0%,0%);stroke-opacity:1;stroke-miterlimit:10;" d="M 159.804688 70.304688 L 184.429688 59.085938 "/>
<path style="fill:none;stroke-width:1.2;stroke-linecap:butt;stroke-linejoin:miter;stroke:rgb(0%,0%,0%);stroke-opacity:1;stroke-miterlimit:10;" d="M 203.859375 101.738281 L 225.886719 117.457031 "/>
<path style="fill:none;stroke-width:1.2;stroke-linecap:butt;stroke-linejoin:miter;stroke:rgb(0%,0%,0%);stroke-opacity:1;stroke-miterlimit:10;" d="M 203.859375 101.738281 L 206.457031 74.804688 "/>
</g>
</svg>

<svg xmlns="http://www.w3.org/2000/svg" xmlns:xlink="http://www.w3.org/1999/xlink" width="300pt" height="300pt" viewBox="0 0 300 300"><defs><symbol overflow="visible"><path d="M.547 1.938V-7.75h5.5v9.688zm.625-.61h4.266v-8.47H1.171zm0 0"/></symbol><symbol overflow="visible" id="a"><path d="M1.078-8.016h1.094v3.282H6.11v-3.282h1.077V0H6.11v-3.813H2.17V0H1.078zm0 0"/></symbol><symbol overflow="visible" id="b"><path d="M4.328-7.28c-.78 0-1.406.296-1.875.89-.46.585-.687 1.382-.687 2.39 0 1.012.226 1.813.687 2.406.47.586 1.094.875 1.875.875.79 0 1.414-.288 1.875-.874.457-.593.688-1.394.688-2.406 0-1.008-.23-1.805-.687-2.39-.46-.594-1.086-.89-1.875-.89zm0-.892c1.125 0 2.024.383 2.703 1.14C7.708-6.28 8.048-5.27 8.048-4c0 1.262-.34 2.273-1.016 3.03C6.353-.22 5.454.157 4.33.157S2.3-.22 1.625-.97c-.668-.75-1-1.757-1-3.03 0-1.27.332-2.28 1-3.03.676-.76 1.578-1.142 2.703-1.142zm0 0"/></symbol><symbol overflow="visible" id="c"><path d="M1.078-8.016h1.47l3.546 6.704v-6.704h1.062V0H5.688L2.124-6.703V0H1.078zm0 0"/></symbol></defs><g><path fill="#fff" d="M0 0h300v300H0z"/><path d="M176.637 139.895l1.3-13.47" stroke-width="1.2" stroke="#f00" stroke-miterlimit="10" fill="none"/><path d="M177.938 126.426l1.296-13.47" stroke-width="1.2" stroke="#000" stroke-miterlimit="10" fill="none"/><path d="M168.637 133.395h17v13h-17zm0 0" fill="#fff"/><g fill="#f00"><use xlink:href="#a" x="168.637" y="143.296"/><use xlink:href="#b" x="176.661" y="143.296"/></g><path d="M157.207 97.242l19.254 19.602 5.548-7.774zm0 0"/><path d="M179.234 112.957l24.625-11.22M157.207 97.242l-12.312 5.61" stroke-width="1.2" stroke="#000" stroke-miterlimit="10" fill="none"/><path d="M144.895 102.852l-12.313 5.61" stroke-width="1.2" stroke="#00f" stroke-miterlimit="10" fill="none"/><path d="M157.207 97.242l2.598-26.937" stroke-width="1.2" stroke="#000" stroke-miterlimit="10" fill="none"/><path d="M132.582 108.46l-1.297 13.466" stroke-width="1.2" stroke="#00f" stroke-miterlimit="10" fill="none"/><path d="M131.285 121.926l-1.3 13.47" stroke-width="1.2" stroke="#000" stroke-miterlimit="10" fill="none"/><path d="M124.582 101.96h17v13h-17zm0 0" fill="#fff"/><g fill="#00f"><use xlink:href="#c" x="124.582" y="111.862"/><use xlink:href="#a" x="132.565" y="111.862"/></g><path d="M129.984 135.395l11.016 7.86" stroke-width="1.2" stroke="#000" stroke-miterlimit="10" fill="none"/><path d="M141 143.254l11.012 7.86" stroke-width="1.2" stroke="#00f" stroke-miterlimit="10" fill="none"/><path d="M128.488 142.148l8.813 6.29" stroke-width="1.2" stroke="#000" stroke-miterlimit="10" fill="none"/><path d="M137.3 148.438l8.813 6.285M105.36 146.613l12.312-5.61" stroke-width="1.2" stroke="#00f" stroke-miterlimit="10" fill="none"/><path d="M117.672 141.004l12.312-5.61" stroke-width="1.2" stroke="#000" stroke-miterlimit="10" fill="none"/><path d="M152.012 151.113l-1.297 13.465" stroke-width="1.2" stroke="#00f" stroke-miterlimit="10" fill="none"/><path d="M150.715 164.578l-1.297 13.47" stroke-width="1.2" stroke="#000" stroke-miterlimit="10" fill="none"/><path d="M148.012 144.613h8v13h-8zm0 0" fill="#fff"/><use xlink:href="#c" x="148.012" y="154.515" fill="#00f"/><path d="M149.418 178.047l11.012 7.86" stroke-width="1.2" stroke="#000" stroke-miterlimit="10" fill="none"/><path d="M160.43 185.906l11.015 7.856" stroke-width="1.2" stroke="#00f" stroke-miterlimit="10" fill="none"/><path d="M149.418 178.047l-24.625 11.22M144.313 173.375l-19.7 8.973" stroke-width="1.2" stroke="#000" stroke-miterlimit="10" fill="none"/><path d="M171.445 193.762l12.313-5.61" stroke-width="1.2" stroke="#00f" stroke-miterlimit="10" fill="none"/><path d="M183.758 188.152l12.312-5.61" stroke-width="1.2" stroke="#000" stroke-miterlimit="10" fill="none"/><path d="M163.445 187.262h17v13h-17zm0 0" fill="#fff"/><g fill="#00f"><use xlink:href="#c" x="163.445" y="197.163"/><use xlink:href="#a" x="171.429" y="197.163"/></g><path d="M196.07 182.543l22.028 15.72M218.098 198.262l-2.598 26.933M224.176 201.566l-2.078 21.547M242.723 187.043l-24.625 11.22M215.5 225.195l22.027 15.72M237.527 240.914l24.625-11.22M237.352 233.996l19.7-8.976M262.152 229.695l1.3-13.468" stroke-width="1.2" stroke="#000" stroke-miterlimit="10" fill="none"/><path d="M263.453 216.227l1.297-13.47M264.75 202.758l-11.016-7.856" stroke-width="1.2" stroke="#00f" stroke-miterlimit="10" fill="none"/><path d="M253.734 194.902l-11.01-7.86" stroke-width="1.2" stroke="#000" stroke-miterlimit="10" fill="none"/><path d="M258.848 206.37l-8.81-6.288" stroke-width="1.2" stroke="#00f" stroke-miterlimit="10" fill="none"/><path d="M250.04 200.082l-8.813-6.285" stroke-width="1.2" stroke="#000" stroke-miterlimit="10" fill="none"/><path d="M260.75 196.258h8v13h-8zm0 0" fill="#fff"/><use xlink:href="#c" x="260.75" y="206.159" fill="#00f"/><path d="M124.793 189.266l-4.07 12.902" stroke-width="1.2" stroke="#000" stroke-miterlimit="10" fill="none"/><path d="M120.723 202.168l-4.07 12.902" stroke-width="1.2" stroke="#00f" stroke-miterlimit="10" fill="none"/><path d="M102.762 173.547l22.03 15.72" stroke-width="1.2" stroke="#000" stroke-miterlimit="10" fill="none"/><path d="M116.652 215.07l-13.53.118" stroke-width="1.2" stroke="#00f" stroke-miterlimit="10" fill="none"/><path d="M103.12 215.188l-13.526.117" stroke-width="1.2" stroke="#000" stroke-miterlimit="10" fill="none"/><path d="M113.89 208.727l-10.824.093" stroke-width="1.2" stroke="#00f" stroke-miterlimit="10" fill="none"/><path d="M103.066 208.82l-10.824.094" stroke-width="1.2" stroke="#000" stroke-miterlimit="10" fill="none"/><path d="M112.652 208.57h8v13h-8zm0 0" fill="#fff"/><use xlink:href="#c" x="112.652" y="218.472" fill="#00f"/><path d="M89.594 215.305L85.3 202.473" stroke-width="1.2" stroke="#000" stroke-miterlimit="10" fill="none"/><path d="M85.3 202.473L81.01 189.64M81.008 189.64l10.88-8.046" stroke-width="1.2" stroke="#00f" stroke-miterlimit="10" fill="none"/><path d="M91.887 181.594l10.875-8.047" stroke-width="1.2" stroke="#000" stroke-miterlimit="10" fill="none"/><path d="M81.008 189.64l-12.903-4.07" stroke-width="1.2" stroke="#00f" stroke-miterlimit="10" fill="none"/><path d="M68.105 185.57l-12.902-4.07" stroke-width="1.2" stroke="#000" stroke-miterlimit="10" fill="none"/><path d="M77.008 183.14h8v13h-8zm0 0" fill="#fff"/><use xlink:href="#c" x="77.008" y="193.042" fill="#00f"/><path d="M102.762 173.547l1.3-13.465" stroke-width="1.2" stroke="#000" stroke-miterlimit="10" fill="none"/><path d="M104.063 160.082l1.296-13.47" stroke-width="1.2" stroke="#00f" stroke-miterlimit="10" fill="none"/><path d="M109.36 171.465l1.038-10.774" stroke-width="1.2" stroke="#000" stroke-miterlimit="10" fill="none"/><path d="M110.398 160.69l1.04-10.772" stroke-width="1.2" stroke="#00f" stroke-miterlimit="10" fill="none"/><path d="M101.36 140.113h8v13h-8zm0 0" fill="#fff"/><use xlink:href="#c" x="101.359" y="150.015" fill="#00f"/><path d="M55.203 181.5L35.25 199.78M55.203 181.5l-5.855-26.418M159.805 70.305l24.625-11.22M203.86 101.738l22.027 15.72M203.86 101.738l2.597-26.933" stroke-width="1.2" stroke="#000" stroke-miterlimit="10" fill="none"/></g></svg>
